icons/agriculture_worker_alt_fill.svg

<svg width="48" height="48" viewBox="0 0 48 48" fill="none" xmlns="http://www.w3.org/2000/svg">
<path d="M19.5 13C17.567 13 16 11.433 16 9.5C16 7.567 17.567 6 19.5 6C21.433 6 23 7.567 23 9.5C23 11.433 21.433 13 19.5 13Z" fill="black"/>
<path fill-rule="evenodd" clip-rule="evenodd" d="M32 16C32.3643 16 32.7058 16.0974 33 16.2676V15H32C30.3431 15 29 13.6569 29 12V6H31V12C31 12.5523 31.4477 13 32 13H33V6H35V13H36C36.5523 13 37 12.5523 37 12V6H39V12C39 13.6569 37.6569 15 36 15H35V41C35 41.5523 34.5523 42 34 42C33.4477 42 33 41.5523 33 41V19.7324C32.7058 19.9026 32.3643 20 32 20H25V40C25 41.1046 24.1046 42 23 42C21.8954 42 21 41.1046 21 40L21 31H18L18 40C18 41.1046 17.1046 42 16 42C14.8954 42 14 41.1046 14 40V27.917C11.1623 27.441 9 24.973 9 22C9 18.6863 11.6863 16 15 16H32ZM12 22C12 20.8954 12.8954 20 14 20V24C12.8954 24 12 23.1046 12 22Z" fill="black"/>
</svg>

<svg
  xmlns="http://www.w3.org/2000/svg"
  width="24"
  height="24"
  viewBox="0 0 24 24"
  fill="none"
  stroke="currentColor"
  stroke-width="2"
  stroke-linecap="round"
  stroke-linejoin="round"
>
  <path d="M19.5 13a3.5 3.5 0 1 1 0-7 3.5 3.5 0 0 1 0 7" />
  <path
    fill-rule="evenodd"
    d="M32 16c.364 0 .706.097 1 .268V15h-1a3 3 0 0 1-3-3V6h2v6a1 1 0 0 0 1 1h1V6h2v7h1a1 1 0 0 0 1-1V6h2v6a3 3 0 0 1-3 3h-1v26a1 1 0 1 1-2 0V19.732A2 2 0 0 1 32 20h-7v20a2 2 0 1 1-4 0v-9h-3v9a2 2 0 1 1-4 0V27.917A6.002 6.002 0 0 1 15 16zm-20 6a2 2 0 0 1 2-2v4a2 2 0 0 1-2-2"
    clip-rule="evenodd"
  />
</svg>
